X:0
T:2025-02-18
T:Whipton Barton Rant
M:4/4
L:1/8
K:G
%%text Rant, simple. Keyless
%% When I first wrote this I liked the simplicity and
%% that the b part almost deliberately subverts the usual rant
%% note changes, but now it just seems simple. :(
B>c | dBgB dBgB | d2 c4 A>B | cAfA cAfA | c2B4 B>c |
dBgB dBgB | d2A4 A>B | cAfe dcBA | [1 G2 B2 G2 :| [2 G6 :|
B>c | dBdB dBdB | d2A4 A>B | cAcA cAcB/2A/2 | c2 B4 B>c |
dBeB dBgB | d2 A4 A>B | cAdA eAfA | def ~g3 |

